icons/vegan.svg

<svg viewBox="0 0 26 26" fill="none" xmlns="http://www.w3.org/2000/svg">
<path d="M24.9438 1.00372L24.7338 0.128723L23.8588 0.364973C23.5 0.469973 14.75 2.93747 12.2563 7.12872C12.1513 7.30372 12.0638 7.47872 11.9763 7.66247C9.15876 4.37247 2.16751 2.60497 1.85251 2.49997L0.977509 2.28997L0.750009 3.19997C0.680009 3.54122 -0.999991 11.565 1.35376 15.31C1.96877 16.2889 2.82179 17.0961 3.83319 17.6561C4.8446 18.2161 5.98141 18.5107 7.13751 18.5125C7.5044 18.5083 7.87028 18.4732 8.23126 18.4075L11.1013 25.5562H13.7263L16.78 17.9437C17.2653 18.0545 17.761 18.1131 18.2588 18.1187C19.556 18.1116 20.8289 17.7665 21.9521 17.1174C23.0752 16.4684 24.0098 15.5378 24.6638 14.4175C27.1225 10.2175 25.0313 1.37997 24.9438 1.00372ZM2.87626 14.3825C1.44126 12.125 1.89626 7.08497 2.32501 4.46872C4.87126 5.22122 9.57001 6.98872 11.0138 9.28997C11.1187 9.45551 11.2122 9.62799 11.2938 9.80622C11.1351 10.8086 11.1827 11.8329 11.4338 12.8162C11.4863 12.9912 11.5388 13.175 11.6 13.35C11.2905 14.4613 10.5837 15.4204 9.61376 16.045L7.97751 11.9062H5.62376L7.56626 16.7362C6.64387 16.8114 5.71857 16.6316 4.89144 16.2165C4.06432 15.8014 3.3672 15.167 2.87626 14.3825ZM12.5013 23.2637L10.305 17.6812L10.5675 17.5412C11.4442 16.989 12.1738 16.2324 12.6938 15.3362C13.2472 16.0709 13.9399 16.6894 14.7325 17.1562L14.8813 17.2262L12.5013 23.2637ZM23.1413 13.525C22.5731 14.5055 21.7245 15.2937 20.7047 15.788C19.6849 16.2823 18.5405 16.4602 17.4188 16.2987L19.1688 11.9237H16.9375L15.4938 15.625C14.3165 14.9089 13.468 13.7586 13.1313 12.4225C12.939 11.6881 12.8957 10.9227 13.0039 10.1713C13.1121 9.41988 13.3696 8.69776 13.7613 8.04747C15.4675 5.12497 21.2163 3.04247 23.4388 2.32497C24.0075 5.19497 24.7075 10.865 23.1413 13.525Z" fill="#242E30"/>
</svg>

<svg xmlns="http://www.w3.org/2000/svg" fill="none" viewBox="0 0 26 26"><path fill="#242E30" d="m24.944 1.004-.21-.875-.875.236C23.5.47 14.75 2.937 12.256 7.129c-.105.175-.192.35-.28.533C9.16 4.372 2.168 2.605 1.853 2.5l-.875-.21-.228.91c-.07.341-1.75 8.365.604 12.11a6.843 6.843 0 0 0 5.784 3.202c.366-.004.732-.039 1.093-.105l2.87 7.15h2.625l3.054-7.613c.485.11.981.17 1.479.175a7.463 7.463 0 0 0 6.405-3.701c2.458-4.2.367-13.038.28-13.414ZM2.876 14.383c-1.435-2.258-.98-7.298-.551-9.914 2.546.752 7.245 2.52 8.689 4.821.105.166.198.338.28.516a7.454 7.454 0 0 0 .14 3.01c.052.175.105.359.166.534a4.708 4.708 0 0 1-1.986 2.695l-1.636-4.139H5.624l1.942 4.83a5.049 5.049 0 0 1-4.69-2.354Zm9.625 8.88-2.196-5.582.263-.14a6.405 6.405 0 0 0 2.126-2.205 7 7 0 0 0 2.038 1.82l.15.07-2.38 6.038Zm10.64-9.738a5.68 5.68 0 0 1-5.722 2.774l1.75-4.375h-2.232l-1.443 3.701a5.25 5.25 0 0 1-2.363-3.203 5.687 5.687 0 0 1 .63-4.375c1.707-2.922 7.455-5.005 9.678-5.722.569 2.87 1.268 8.54-.298 11.2Z"/></svg>
